X: 609
T: Biao guniang
L: 1/8
M: 2/4
K: Bb
d'2d' c' [I:setbarnb 1]| 
d' c'd'2 | 
b b b c' | 
d' c'b2 | 
b c' d' f' | 
d' c'b2 | 
c' d' g f | 
d4 | 
b2b g | 
B2b2 | 
b2b2 | 
a gf2 | 
b gb2 | 
d fd2 | 
b a g f | 
d fd2 | 
b c' d' f' | 
c'4 | 
b c' d' f' | 
d' c'b2 | 
c' d' a g | 
f g a g | 
f4 |]

@@@ Tune index: 9483
